X:140
M:4/4
L:1/8
K:G
e>f | g>fe>d B2A>B | d>BA/B/A G>ED>E | G2G>A B>de>f | g>fe>d B2A>B | 
d>BA/B/A G2G2 | G6 :|| A2 | B>de>f g2f>g | a>gf>g e2f2 | 
f>ed>B d>BA>B | d2d2 d2e>f | g2g>a g>fe>d | B/d/BA>G E>DB,>D | 

